_includes/icon-globe.svg

<svg xmlns="http://www.w3.org/2000/svg" xml:space="preserve" width="128" height="128" class="globe" viewBox="0 0 128 128"><path d="M64 .29C28.87.29.29 28.87.28 64 .29 99.13 28.87 127.71 64 127.71S127.71 99.12 127.71 64C127.71 28.87 99.13.29 64 .29m25.2 84.96c-6.24-1.85-13.4-3.09-21.59-3.38V67.61h24.18c-.26 6.62-1.21 12.45-2.59 17.64M38.75 42.74c6.26 1.86 13.43 3.11 21.64 3.4v14.25H36.16c.25-6.63 1.2-12.46 2.59-17.65m-2.53 24.87h24.17v14.25c-8.17.29-15.31 1.52-21.55 3.37-1.4-5.19-2.36-11.01-2.62-17.62m55.57-7.22H67.61V46.13c8.17-.29 15.31-1.52 21.55-3.37 1.4 5.2 2.37 11.02 2.63 17.63m28.58 0h-21.3c-.26-7.53-1.35-14.17-2.96-20.05 5.73-2.35 10.52-5.19 14.49-8.17 5.58 8.14 9.1 17.79 9.77 28.22m-14.23-33.91c-3.39 2.51-7.44 4.93-12.28 6.96-4.3-11.24-10.54-19.06-16.1-24.23 11.15 2.8 20.95 8.95 28.38 17.27m-19.22 9.4c-5.58 1.64-11.97 2.75-19.31 3.03V10.3c5.43 3.88 13.95 11.8 19.31 25.58M60.39 10.22v28.69c-7.38-.28-13.82-1.41-19.43-3.07 5.37-13.9 13.96-21.78 19.43-25.62M50.24 9.21c-5.55 5.17-11.79 12.99-16.09 24.23-4.84-2.03-8.89-4.45-12.28-6.96 7.42-8.32 17.23-14.47 28.37-17.27M17.41 32.17c3.97 2.97 8.77 5.82 14.49 8.16-1.61 5.88-2.7 12.52-2.96 20.05H7.64c.66-10.42 4.19-20.07 9.77-28.21m11.53 35.44c.26 7.53 1.36 14.17 2.96 20.06-5.73 2.34-10.52 5.19-14.49 8.16-5.58-8.14-9.11-17.79-9.78-28.22zm-7.06 33.91c3.38-2.51 7.43-4.92 12.28-6.96 4.3 11.23 10.53 19.06 16.09 24.23-11.15-2.8-20.96-8.95-28.37-17.27m19.2-9.4c5.58-1.64 11.97-2.75 19.3-3.03v28.62c-5.41-3.88-13.93-11.81-19.3-25.59m26.53 25.65V89.09c7.37.28 13.79 1.4 19.38 3.05-5.36 13.9-13.91 21.79-19.38 25.63m10.16 1.02c5.55-5.17 11.79-12.99 16.09-24.23 4.84 2.03 8.89 4.45 12.27 6.96-7.42 8.32-17.22 14.47-28.36 17.27m32.83-22.96c-3.97-2.97-8.77-5.82-14.49-8.16 1.61-5.89 2.7-12.52 2.96-20.06h21.3c-.66 10.43-4.19 20.08-9.77 28.22"/></svg>

<svg version="1.1" class="globe" xmlns="http://www.w3.org/2000/svg" xmlns:xlink="http://www.w3.org/1999/xlink" x="0px" y="0px" width="128px" height="128px" viewBox="0 0 128 128" enable-background="new 0 0 128 128" xml:space="preserve">
	<path d="M64,0.29C28.87,0.29,0.29,28.87,0.28,64l0,0C0.29,99.13,28.87,127.71,64,127.71   c35.13,0,63.71-28.59,63.71-63.71l0,0C127.71,28.87,99.13,0.29,64,0.29z M89.2,85.25c-6.24-1.85-13.4-3.09-21.59-3.38V67.61h24.18   C91.53,74.23,90.58,80.06,89.2,85.25z M38.75,42.74c6.26,1.86,13.43,3.11,21.64,3.4v14.25H36.16   C36.41,53.76,37.36,47.93,38.75,42.74z M36.22,67.61h24.17v14.25c-8.17,0.29-15.31,1.52-21.55,3.37   C37.44,80.04,36.48,74.22,36.22,67.61z M91.79,60.39H67.61V46.13c8.17-0.29,15.31-1.52,21.55-3.37   C90.56,47.96,91.53,53.78,91.79,60.39z M120.37,60.39h-21.3c-0.26-7.53-1.35-14.17-2.96-20.05c5.73-2.35,10.52-5.19,14.49-8.17   C116.18,40.31,119.7,49.96,120.37,60.39z M106.14,26.48c-3.39,2.51-7.44,4.93-12.28,6.96C89.56,22.2,83.32,14.38,77.76,9.21   C88.91,12.01,98.71,18.16,106.14,26.48z M86.92,35.88c-5.58,1.64-11.97,2.75-19.31,3.03V10.3C73.04,14.18,81.56,22.1,86.92,35.88z    M60.39,10.22v28.69c-7.38-0.28-13.82-1.41-19.43-3.07C46.33,21.94,54.92,14.06,60.39,10.22z M50.24,9.21   c-5.55,5.17-11.79,12.99-16.09,24.23c-4.84-2.03-8.89-4.45-12.28-6.96C29.29,18.16,39.1,12.01,50.24,9.21z M17.41,32.17   c3.97,2.97,8.77,5.82,14.49,8.16c-1.61,5.88-2.7,12.52-2.96,20.05H7.64C8.3,49.96,11.83,40.31,17.41,32.17z M28.94,67.61   c0.26,7.53,1.36,14.17,2.96,20.06c-5.73,2.34-10.52,5.19-14.49,8.16c-5.58-8.14-9.11-17.79-9.78-28.22H28.94z M21.88,101.52   c3.38-2.51,7.43-4.92,12.28-6.96c4.3,11.23,10.53,19.06,16.09,24.23C39.1,115.99,29.29,109.84,21.88,101.52z M41.08,92.12   c5.58-1.64,11.97-2.75,19.3-3.03v28.62C54.97,113.83,46.45,105.9,41.08,92.12z M67.61,117.77V89.09c7.37,0.28,13.79,1.4,19.38,3.05   C81.63,106.04,73.08,113.93,67.61,117.77z M77.77,118.79c5.55-5.17,11.79-12.99,16.09-24.23c4.84,2.03,8.89,4.45,12.27,6.96   C98.71,109.84,88.91,115.99,77.77,118.79z M110.6,95.83c-3.97-2.97-8.77-5.82-14.49-8.16c1.61-5.89,2.7-12.52,2.96-20.06h21.3   C119.71,78.04,116.18,87.69,110.6,95.83z"/>
  <!-- Globe SVG Copyright © Google 2014

  Licensed under the Apache License, Version 2.0 (the "License"); you may not use this file except in compliance with the License. You may obtain a copy of the License at https://www.apache.org/licenses/LICENSE-2.0. Unless required by applicable law or agreed to in writing, software distributed under the License is distributed on an "AS IS" BASIS, WITHOUT WARRANTIES OR CONDITIONS OF ANY KIND, either express or implied. See the License for the specific language governing permissions and limitations under the License. -->
</svg>
